X: 21031
T: WITH VERDURE CLAD	
Q: "Andante"
%R: waltz
B: "Edinburgh Repository of Music" v.2 p.103
F: http://digital.nls.uk/special-collections-of-printed-music/pageturner.cfm?id=87776133
Z: 2015 John Chambers <jc:trillian.mit.edu>
M: 6/8
L: 1/16
K: D
A2 !segno!|:"_P."\
(d3c2)d2 e4f2 | (g2e2a2) (g2f2)d2 |\
c4d2 (e>f) g2f2 | e3{fe^de}fd2 d2c2A2 |\
d3cd2 e4f2 | (g2b2) (ag) (g2f2)a2 |\
(a2c2)a2 (a2d'2)f2 | (a2c2)c2 (d2f2)a2 |
(a2c2).c2 d4dc | (B3"_Cres:"c/^d/ e/f/g/a/ "_F."bc'=d'bge) |\
(a2f2)d2 (A2B2)c2 | (d2A2)f2 d4 H|\
] d2 | "_PP."(g3f)e2 (e2f2)g2 |\
{fg}a4f2 d4a2 | (a2^g2)f2 (f2e2)^d2 |
(^d6 e2)f2^g2 | a6- a2f2d2 |\
c2=d2B2 Ac2e2^g- | ga2g{g}fe d2-(d/e/)(c/d/) (B/c/)(A/B/) |\
^G2z(B/c/) (e/d/c/B/) Ac2e2^g- | ^ga2(c'/b/) (a/g/f/e/) d2z(f/e/ d/c/B/A/) |
^G2z(B/c/) (d/e/d/e/) (d2c2)f2 | "_dol:"(f2e2)d2 (d4c2) |\
(B2d2)^G2 (A2c2)e2 | f^gafdB (A2B2)^G2 |\
A6- HA4^A2 | B6- HB2 {c2d2e2f2g2f2e2d2}Hc2 A2 !segno!:|
